;FLAVOR:Marlin
;TIME:3630
;Filament used: 4.51578m
;Layer height: 0.2
;MINX:96.22
;MINY:110.708
;MINZ:0.2
;MAXX:155.774
;MAXY:141.289
;MAXZ:48
;Generated with Cura_SteamEngine 5.4.0
M140 S60
M105
M190 S60
M104 S210
M105
M109 S210
M82 ;absolute extrusion mode
M220 S100 M221 S100

G28 ;Home

G92 E0 ;Reset Extruder
G1 Z2.0 F3000 ;Move Z Axis up 
G1 X10.1 Y20 Z0.28 F5000.0 ;Move to start position 
G1 X10.1 Y200.0 Z0.28 F1500.0 E15 ;Draw the first line
G1 X10.4 Y200.0 Z0.28 F5000.0 ;Move to side a little 
G1 X10.4 Y20 Z0.28 F1500.0 E30 ;Draw the second line 
G92 E0 ;Reset Extruder 
G1 Z2.0 F3000 ;Move Z Axis up
G92 E0
G92 E0
G1 F2400 E-6
;LAYER_COUNT:240
;LAYER:0
M107 P2
;MESH:3DBenchy (1).stl
G0 F3000 X106.521 Y128.269 Z0.2
;TYPE:WALL-INNER
G1 F2400 E0
G1 F1017.3 X106.344 Y128.539 E0.01393
G1 F1189.2 X106.026 Y129.125 E0.03855
G1 F1197.3 X105.57 Y129.55 E0.0614
G1 F1200 X105.333 Y129.716 E0.07199
G1 X104.784 Y129.972 E0.09415
G1 X104.228 Y130.109 E0.1151
G1 X103.627 Y130.16 E0.13717
G1 X102.886 Y130.09 E0.1644
G1 X102.187 Y129.889 E0.19101
G1 X101.597 Y129.576 E0.21545
G1 X101.227 Y129.29 E0.23256
G1 X101.228 Y130.922 E0.29227
G1 X101.322 Y131.236 E0.30426
G1 X101.517 Y131.449 E0.31482
G1 X101.811 Y131.55 E0.3262
G1 X125.385 Y132.982 E1.19027
G1 X126.019 Y132.999 E1.21347
G1 X126.634 Y132.987 E1.23598
G1 X127.525 Y132.924 E1.26866
G1 X128.409 Y132.796 E1.30134
G1 F1242.4 X128.999 Y132.696 E1.32248
G1 F1245.3 X128.574 Y132.688 E1.33747
G1 F1202.7 X128.265 Y132.61 E1.3491
G1 F1200 X127.747 Y132.309 E1.37102
G1 X127.38 Y131.817 E1.39348
G1 X127.195 Y131.2 E1.41704
G1 X127.204 Y130.786 E1.43219
G1 X127.275 Y130.512 E1.44255
G1 X127.47 Y130.173 E1.45686
G1 X127.265 Y130.199 E1.46442
G1 X126.765 Y130.133 E1.48287
G1 X126.471 Y130.004 E1.49462
G1 X126.119 Y129.714 E1.5113
G1 X125.932 Y129.872 E1.52026
G1 X125.509 Y130.104 E1.53791
G1 X125.265 Y130.161 E1.54708
G1 X124.786 Y130.143 E1.56461
G1 X124.449 Y130.062 E1.5773
G1 X124.182 Y129.907 E1.58859
G1 X123.715 Y130.241 E1.6096
G1 X123.09 Y130.439 E1.63358
G1 X122.46 Y130.434 E1.65663
G1 X122.126 Y130.36 E1.66915
G1 X121.615 Y130.116 E1.68987
G1 X121.266 Y129.832 E1.70633
G1 X120.993 Y129.486 E1.72245
G1 X120.406 Y129.773 E1.74636
G1 X119.567 Y129.943 E1.77768
G1 X118.989 Y129.985 E1.79888
G1 X118.063 Y129.977 E1.83276
G1 X117.455 Y130.015 E1.85505
G1 X117.101 Y129.948 E1.86823
G1 X116.767 Y129.809 E1.88147
G1 X116.332 Y129.399 E1.90334
G1 X116.167 Y129.047 E1.91756
G1 X115.789 Y129.453 E1.93785
G1 X115.413 Y129.726 E1.95485
G1 X114.838 Y130.001 E1.97817
G1 X114.063 Y130.164 E2.00715
G1 X113.188 Y130.134 E2.03918
G1 X112.498 Y129.962 E2.0652
G1 X112.222 Y129.853 E2.07605
G1 X111.771 Y129.569 E2.09555
G1 F1145.3 X111.377 Y129.131 E2.11814
G1 F1047.6 X111.038 Y128.432 E2.15069
G1 F992.5 X111.055 Y127.716 E2.18237
G1 F1079.8 X111.595 Y127.007 E2.21861
G1 F1200 X111.889 Y126.789 E2.232
G1 X112.128 Y126.688 E2.2415
G1 X111.896 Y126.339 E2.25683
G1 X111.786 Y125.736 E2.27925
G1 X111.799 Y125.492 E2.28819
G1 X111.917 Y125.097 E2.30328
G1 X111.586 Y124.825 E2.31895
G1 X110.99 Y125.061 E2.3424
G1 X110.332 Y125.104 E2.36653
G1 X110.33 Y127.203 E2.44332
G1 F981.4 X110.427 Y127.665 E2.46444
G1 F846.2 X110.427 Y128.395 E2.50232
G1 F1003.8 X110.117 Y129.212 E2.54054
G1 F1200 X109.806 Y129.607 E2.55893
G1 X109.399 Y129.855 E2.57637
G1 X108.886 Y130.004 E2.59591
G1 X108.376 Y129.97 E2.61461
G1 X107.923 Y129.802 E2.63229
G1 X107.545 Y129.525 E2.64943
G1 X107.247 Y129.028 E2.67063
G1 F1023.3 X107.108 Y128.341 E2.70071
G1 F888.9 X107.116 Y127.721 E2.73133
G1 F1021.3 X107.187 Y127.238 E2.75232
G1 F1200 X107.187 Y125.116 E2.82995
G1 X106.949 Y125.145 E2.83873
G1 X106.522 Y125.113 E2.85439
G1 X106.053 Y124.932 E2.87279
G1 X105.775 Y125.204 E2.88701
G1 X105.314 Y125.427 E2.90575
G1 X104.972 Y125.496 E2.91852
G1 X104.581 Y125.473 E2.93285
G1 X104.047 Y125.294 E2.95345
G1 X103.508 Y124.976 E2.97635
G1 X103.34 Y125.068 E2.98335
G1 X103.232 Y125.299 E2.99268
G1 X103.185 Y125.564 E3.00253
G1 X103.171 Y126.189 E3.0254
G1 X103.217 Y126.56 E3.03908
G1 X103.314 Y126.834 E3.04971
G1 X103.411 Y126.918 E3.05441
G1 X103.637 Y126.948 E3.06275
G1 X103.812 Y126.772 E3.07183
G1 X104.109 Y126.601 E3.08437
G1 X104.583 Y126.456 E3.1025
G1 X104.927 Y126.447 E3.11509
G1 X105.577 Y126.611 E3.13962
G1 X105.932 Y126.86 E3.15548
G1 X106.204 Y127.169 E3.17055
G1 F1021.3 X106.523 Y127.757 E3.1993
G1 F888.9 X106.521 Y128.269 E3.22459
G1 F2400 E-2.77541
G0 F3000 X128.063 Y132.003
G1 F2400 E3.22459
G1 F1200 X127.788 Y131.65 E3.24096
G1 X127.633 Y131.166 E3.25956
G1 X127.683 Y130.675 E3.27761
G1 F1165.6 X127.872 Y130.343 E3.292
G1 F1039.4 X128.015 Y130.175 E3.30132
G1 F963.5 X128.174 Y130.086 E3.30963
G1 F1071 X128.7 Y129.975 E3.33166
G1 F1200 X128.886 Y129.852 E3.33982
G1 X129.39 Y128.694 E3.38603
G1 X129.098 Y128.036 E3.41236
G1 X128.44 Y126.269 E3.48135
G1 X128.134 Y125.514 E3.51115
G1 X127.77 Y126.149 E3.53793
G1 X127.441 Y126.688 E3.56104
G1 X127.915 Y127.523 E3.59616
G1 X128.228 Y128.046 E3.61846
G1 X128.335 Y128.405 E3.63217
G1 X128.313 Y128.967 E3.65275
G1 X128.246 Y129.136 E3.6594
G1 F1071 X127.904 Y129.613 E3.68346
G1 F961.7 X127.792 Y129.669 E3.68917
G1 F1064.5 X127.258 Y129.759 E3.71151
G1 F1200 X126.881 Y129.708 E3.72543
G1 X126.738 Y129.651 E3.73106
G1 X126.288 Y129.265 E3.75275
G1 X126.109 Y128.97 E3.76537
G1 X125.843 Y129.377 E3.78316
G1 X125.456 Y129.648 E3.80045
G1 X125.305 Y129.707 E3.80638
G1 X124.733 Y129.692 E3.82731
G1 X124.498 Y129.592 E3.83666
G1 X124.274 Y129.433 E3.84671
G1 X124.147 Y129.288 E3.85376
G1 X123.97 Y129.51 E3.86415
G1 X123.518 Y129.847 E3.88477
G1 X123.041 Y130.002 E3.90312
G1 X122.486 Y129.994 E3.92343
G1 X122.286 Y129.95 E3.93092
G1 X121.88 Y129.765 E3.94725
G1 X121.587 Y129.531 E3.96097
G1 X121.348 Y129.228 E3.97509
G1 X121.187 Y128.795 E3.99199
G1 X120.818 Y129.082 E4.00909
G1 X120.268 Y129.352 E4.03151
G1 X119.579 Y129.496 E4.05726
G1 X118.957 Y129.546 E4.08009
G1 X118.049 Y129.537 E4.11331
G1 X117.482 Y129.575 E4.1341
G1 X117.001 Y129.436 E4.15242
G1 X116.738 Y129.204 E4.16525
G1 X116.606 Y128.973 E4.17498
G1 X116.494 Y128.629 E4.18822
G1 X116.462 Y128.239 E4.20254
G1 F1037.3 X116.394 Y127.717 E4.22482
G1 X116.111 Y128.315 E4.25282
G1 F1200 X115.821 Y128.781 E4.2729
G1 X115.501 Y129.12 E4.28995
G1 X115.183 Y129.35 E4.30431
G1 X114.696 Y129.58 E4.32402
G1 X114.061 Y129.717 E4.34778
G1 X113.258 Y129.697 E4.37717
G1 X112.503 Y129.51 E4.40563
G1 X112.064 Y129.241 E4.42446
G1 X111.772 Y128.922 E4.44029
G1 X111.57 Y128.437 E4.45951
G1 X111.575 Y127.874 E4.48011
G1 X111.692 Y127.587 E4.49145
G1 X111.875 Y127.347 E4.50249
G1 X112.108 Y127.171 E4.51317
G1 X112.407 Y127.062 E4.52482
G1 F1222.2 X112.61 Y127.045 E4.53213
G1 F1320 X113.049 Y127.091 E4.54681
G1 F1360.8 X113.41 Y127.222 E4.5592
G1 F1300.5 X113.818 Y127.512 E4.5761
G1 F1281.6 X113.947 Y127.412 E4.58169
G1 X113.969 Y127.263 E4.58685
G1 X113.83 Y127.02 E4.59644
G1 F1306.9 X113.478 Y126.814 E4.61015
G1 X112.746 Y126.643 E4.6354
G1 F1242.4 X112.561 Y126.508 E4.64349
G1 F1200 X112.346 Y126.256 E4.65561
G1 X112.261 Y126.028 E4.66451
G1 X112.233 Y125.563 E4.68156
G1 X112.414 Y125.044 E4.70167
G1 X112.56 Y124.869 E4.71
G1 X112.201 Y124.761 E4.72372
G1 X111.843 Y124.462 E4.74078
G1 X111.647 Y124.134 E4.75476
G1 X111.489 Y124.327 E4.76389
G1 X111.315 Y124.461 E4.77192
G1 X110.874 Y124.625 E4.78914
G1 X110.155 Y124.67 E4.8155
G1 X109.894 Y124.656 E4.82506
G1 X109.889 Y127.693 E4.93617
G1 X109.904 Y128.336 E4.9597
G1 X109.786 Y128.887 E4.98032
G1 X109.501 Y129.29 E4.99838
G1 X109.257 Y129.439 E5.00884
G1 X108.836 Y129.566 E5.02492
G1 X108.434 Y129.533 E5.03968
G1 X108.163 Y129.433 E5.05025
G1 X107.859 Y129.217 E5.06389
G1 X107.658 Y128.871 E5.07853
G1 F1202.7 X107.617 Y128.682 E5.08559
G1 X107.637 Y127.995 E5.11068
G1 F1200 X107.627 Y127.224 E5.13889
G1 X107.628 Y124.622 E5.23409
G1 X106.896 Y124.708 E5.26105
G1 X106.639 Y124.689 E5.27048
G1 X106.273 Y124.552 E5.28478
G1 X105.944 Y124.211 E5.30212
G1 X105.846 Y124.472 E5.31232
G1 X105.508 Y124.854 E5.33098
G1 X105.16 Y125.015 E5.34501
G1 X104.954 Y125.056 E5.35269
G1 X104.659 Y125.04 E5.3635
G1 X104.243 Y124.899 E5.37957
G1 X103.673 Y124.557 E5.40389
G1 X103.522 Y124.533 E5.40948
G1 X103.253 Y124.593 E5.41957
G1 X103.024 Y124.752 E5.42977
G1 X102.901 Y124.929 E5.43765
G1 X102.806 Y125.182 E5.44754
G1 X102.746 Y125.52 E5.4601
G1 X102.73 Y126.211 E5.48539
G1 X102.785 Y126.652 E5.50165
G1 X102.968 Y127.116 E5.5199
G1 X103.172 Y127.294 E5.5298
G1 X103.329 Y127.363 E5.53608
G1 X103.668 Y127.395 E5.54853
G1 X103.867 Y127.341 E5.55608
G1 X104.195 Y127.044 E5.57227
G1 X104.662 Y126.889 E5.59027
G1 X104.869 Y126.884 E5.59784
G1 X105.349 Y127.005 E5.61595
G1 X105.662 Y127.208 E5.6296
G1 X105.951 Y127.613 E5.64781
G1 X106.009 Y127.816 E5.65553
G1 F1202.7 X106.017 Y128.21 E5.66992
G1 X105.676 Y128.85 E5.69639
G1 X105.204 Y129.289 E5.71992
G1 X104.67 Y129.547 E5.74156
G1 F1200 X104.178 Y129.672 E5.76014
G1 X103.567 Y129.713 E5.78254
G1 X102.928 Y129.652 E5.80603
G1 X102.325 Y129.471 E5.82906
G1 X101.816 Y129.194 E5.85026
G1 X101.467 Y128.917 E5.86656
G1 X101.096 Y128.499 E5.88701
G1 X100.787 Y127.95 E5.91006
G1 X100.788 Y130.971 E6.02059
G1 X100.855 Y131.272 E6.03187
G1 X100.948 Y131.477 E6.0401
G1 X101.199 Y131.765 E6.05408
G1 X101.32 Y131.846 E6.05941
G1 X101.724 Y131.986 E6.07505
G1 X125.372 Y133.422 E6.94183
G1 X126.027 Y133.439 E6.96581
G1 X126.654 Y133.427 E6.98875
G1 X127.572 Y133.361 E7.02242
G1 X128.468 Y133.233 E7.05554
G1 X129.316 Y133.067 E7.08715
G1 X130.226 Y132.819 E7.12166
G1 X131.29 Y132.442 E7.16296
G1 X132.445 Y131.931 E7.20917
G1 X133.446 Y131.366 E7.25122
G1 X133.988 Y131.02 E7.27475
G1 X134.69 Y130.517 E7.30634
G1 X135.138 Y130.158 E7.32735
G1 X135.616 Y129.742 E7.35053
G1 X134.107 Y129.738 E7.40574
G1 X133.59 Y129.756 E7.42466
G1 X133.362 Y129.713 E7.43315
G1 X133.023 Y129.565 E7.44669
G1 X132.715 Y129.218 E7.46366
G1 X132.563 Y128.788 E7.48035
G1 F1060.2 X132.546 Y128.076 E7.50984
G1 F934.5 X132.835 Y127.481 E7.54091
G1 F1041.4 X133.119 Y127.192 E7.558
G1 F1200 X133.898 Y126.118 E7.60654
G1 X133.462 Y126.067 E7.6226
G1 X133.044 Y125.901 E7.63905
G1 X132.817 Y125.682 E7.65059
G1 X132.659 Y126.034 E7.66471
G1 X132.398 Y126.813 E7.69477
G1 F1041.4 X132.314 Y127.246 E7.71336
G1 F956.5 X132.087 Y127.813 E7.74139
G1 F1075.4 X131.849 Y128.362 E7.76582
G1 F1186.5 X131.477 Y129.39 E7.80627
G1 F1200 X130.892 Y130.89 E7.86518
G1 X130.486 Y131.525 E7.89276
G1 X130.345 Y131.683 E7.9005
G1 X129.93 Y131.981 E7.91919
G1 X129.308 Y132.222 E7.9436
G1 X128.94 Y132.276 E7.95721
G1 X128.683 Y132.262 E7.96662
G1 X128.374 Y132.183 E7.97829
G1 X128.063 Y132.003 E7.99144
G0 F3000 X128.999 Y132.696
G1 F671.8 X129.401 Y132.619 E8.00482
G1 F639.2 X130.094 Y132.394 E8.02984
G1 F2400 E2.02984
G0 F3000 X128.533 Y129.541
G1 F2400 E8.02984
G1 F576.4 X128.703 Y129.184 E8.04489
G1 F534.4 X128.845 Y128.695 E8.06581
G1 F561.7 X128.625 Y127.94 E8.09654
G1 F600 X128.317 Y127.282 E8.12312
G1 F480 X128.045 Y126.698 E8.15259
G1 F2400 E2.15259
G0 F3000 X123.813 Y126.555
G1 F2400 E8.15259
G1 F1200 X124.247 Y126.892 E8.17269
G1 X124.336 Y126.744 E8.17901
G1 X123.751 Y125.713 E8.22238
G1 X123.581 Y125.088 E8.24608
G1 X123.616 Y124.514 E8.26711
G1 X123.724 Y124.22 E8.27857
G1 X124.027 Y123.819 E8.29696
G1 X124.451 Y123.534 E8.31565
G1 X124.68 Y123.451 E8.32456
G1 X125.115 Y123.386 E8.34066
G1 X125.341 Y123.394 E8.34893
G1 X125.861 Y123.569 E8.369
G1 X126.184 Y123.812 E8.38379
G1 X126.509 Y123.575 E8.39851
G1 X127.052 Y123.4 E8.41938
G1 X127.397 Y123.39 E8.43201
G1 X127.919 Y123.562 E8.45212
G1 X128.144 Y123.723 E8.46224
G1 X128.505 Y123.497 E8.47782
G1 X128.93 Y123.391 E8.49385
G1 X129.359 Y123.404 E8.50955
G1 X129.59 Y123.454 E8.5182
G1 X130.004 Y123.628 E8.53463
G1 X130.473 Y124.04 E8.55747
G1 X130.565 Y124.19 E8.5639
G1 X130.949 Y123.738 E8.5856
G1 X131.112 Y123.613 E8.59312
G1 X131.555 Y123.421 E8.61078
G1 X132.005 Y123.395 E8.62727
G1 X132.343 Y123.465 E8.6399
G1 X132.78 Y123.708 E8.6582
G1 X133.225 Y123.476 E8.67656
G1 X133.912 Y123.38 E8.70193
G1 X136.129 Y123.385 E8.78305
G1 X135.712 Y122.954 E8.80499
G1 X135.178 Y122.452 E8.8318
G1 X134.713 Y122.06 E8.85405
G1 X134.132 Y121.617 E8.88078
G1 X133.503 Y121.181 E8.90878
G1 X132.757 Y120.74 E8.94049
G1 X131.878 Y120.285 E8.9767
G1 X130.855 Y119.856 E9.01729
G1 X130.131 Y119.618 E9.04517
G1 X129.373 Y119.401 E9.07402
G1 X128.412 Y119.2 E9.10994
G1 X127.438 Y119.072 E9.14588
G1 X126.762 Y119.02 E9.17068
G1 X126.008 Y119.001 E9.19828
G1 X125.35 Y119.019 E9.22236
G1 X101.768 Y120.452 E10.08673
G1 X101.55 Y120.531 E10.09521
G1 X101.402 Y120.652 E10.1022
G1 X101.293 Y120.813 E10.10932
G1 X101.227 Y121.078 E10.11931
G1 X101.227 Y122.658 E10.17712
G1 X101.663 Y122.312 E10.19748
G1 X102.262 Y122.012 E10.22199
G1 X103.073 Y121.797 E10.25269
G1 X103.875 Y121.777 E10.28204
G1 X104.314 Y121.833 E10.29823
G1 X104.896 Y122.001 E10.32039
G1 X105.54 Y122.35 E10.34719
G1 X105.673 Y122.465 E10.35362
G1 X106.126 Y122.095 E10.37502
G1 X106.428 Y121.975 E10.38691
G1 X106.834 Y121.909 E10.40196
G1 X107.508 Y121.955 E10.42668
G1 X108.079 Y121.945 E10.44757
G1 X110.149 Y121.951 E10.5233
G1 X110.817 Y121.939 E10.54775
G1 X111.32 Y122.05 E10.56659
G1 X111.653 Y122.231 E10.58046
G1 X111.806 Y122.365 E10.5879
G1 X112.115 Y122.155 E10.60157
G1 X112.645 Y121.934 E10.62258
G1 X113.276 Y121.793 E10.64623
G1 X114.04 Y121.774 E10.67419
G1 X114.484 Y121.831 E10.69057
G1 X115.025 Y121.976 E10.71106
G1 X115.296 Y122.097 E10.72192
G1 X115.771 Y122.403 E10.74259
G1 X116.143 Y122.812 E10.76282
G1 X116.324 Y122.522 E10.77533
G1 X116.559 Y122.298 E10.78721
G1 X117.162 Y122.006 E10.81172
G1 X117.614 Y121.936 E10.82845
G1 X119.444 Y121.961 E10.89541
G1 X120.182 Y122.095 E10.92285
G1 X120.729 Y122.276 E10.94393
G1 X121.371 Y122.667 E10.97143
G1 X121.596 Y122.867 E10.98245
G1 X122.045 Y123.402 E11.008
G1 X122.374 Y124.012 E11.03336
G1 X122.575 Y124.638 E11.05741
G1 X122.698 Y125.384 E11.08508
G1 X122.726 Y126.278 E11.1178
G1 X123.148 Y126.298 E11.13326
G1 X123.813 Y126.555 E11.15934
G1 F2400 E5.15934
G0 F3000 X136.651 Y127.621
G1 F2400 E11.15934
G1 F1200 X137.058 Y128.022 E11.18024
G1 X137.114 Y128.155 E11.18552
G1 X137.564 Y127.571 E11.2125
G1 X138.037 Y126.876 E11.24325
G1 X138.361 Y126.337 E11.26626
G1 X138.451 Y126.017 E11.27842
G1 X138.441 Y125.888 E11.28316
G1 X138.304 Y125.533 E11.29708
G1 X137.762 Y124.71 E11.33313
G1 F1208.2 X137.182 Y123.927 E11.36854
G1 X136.488 Y123.125 E11.40708
G1 F1200 X136.014 Y122.634 E11.43205
G1 X135.482 Y122.132 E11.45881
G1 X135.002 Y121.727 E11.48179
G1 X134.391 Y121.261 E11.5099
G1 X133.741 Y120.811 E11.53882
G1 X132.971 Y120.355 E11.57156
G1 X132.065 Y119.886 E11.60889
G1 X131.009 Y119.443 E11.65079
G1 X130.26 Y119.198 E11.67962
G1 X129.724 Y119.043 E11.70003
G1 X129.228 Y118.921 E11.71872
G1 X128.486 Y118.766 E11.74645
G1 X127.484 Y118.634 E11.78343
G1 X126.785 Y118.58 E11.80908
G1 X126.008 Y118.561 E11.83751
G1 X125.289 Y118.582 E11.86383
G1 X101.7 Y120.015 E12.72845
G1 X101.315 Y120.155 E12.74344
G1 X101.074 Y120.351 E12.75481
G1 X100.903 Y120.603 E12.76595
G1 X100.787 Y121.029 E12.7821
G1 X100.788 Y123.985 E12.89025
G1 X101.042 Y123.508 E12.91002
G1 X101.337 Y123.146 E12.92711
G1 X101.814 Y122.728 E12.95031
G1 X102.389 Y122.433 E12.97395
G1 X103.133 Y122.237 E13.0021
G1 X103.849 Y122.218 E13.02831
G1 X104.375 Y122.296 E13.04776
G1 X104.893 Y122.478 E13.06785
G1 X105.282 Y122.707 E13.08436
G1 X105.663 Y123.059 E13.10334
G1 X105.785 Y123.216 E13.11062
G1 X105.84 Y123.024 E13.11792
G1 X106.022 Y122.73 E13.13057
G1 X106.349 Y122.475 E13.14575
G1 X106.823 Y122.354 E13.16364
G1 X107.497 Y122.395 E13.18835
G1 X108.077 Y122.385 E13.20957
G1 X110.156 Y122.391 E13.28563
G1 X110.825 Y122.379 E13.31011
G1 X111.127 Y122.445 E13.32142
G1 X111.53 Y122.705 E13.33897
G1 X111.731 Y123.07 E13.35422
G1 X112.007 Y122.761 E13.36937
G1 X112.324 Y122.542 E13.38347
G1 X112.755 Y122.36 E13.40059
G1 X113.331 Y122.231 E13.42218
G1 X114.014 Y122.215 E13.44718
G1 X114.53 Y122.289 E13.46625
G1 X115.063 Y122.471 E13.48686
G1 X115.494 Y122.745 E13.50554
G1 X115.9 Y123.239 E13.52893
