;FLAVOR:Marlin
;TIME:39
;Filament used: 0.0252932m
;Layer height: 0.2
;MINX:121.22
;MINY:121.22
;MINZ:0.2
;MAXX:130.78
;MAXY:130.78
;MAXZ:0.6
;Generated with Cura_SteamEngine 5.4.0
M140 S60 ;set heatbed temp
M105 ;send temp to host
M190 S60 ;set heatbed temp and wait
M104 S210 ;set hotend temp
M105 ;send temp to host
M109 S210 ;set hotend temp and wait til reached 
M82 ;absolute extrusion mode
M220 S100 M221 S100

G28 ;Home

G92 E0 ;Reset Extruder
G1 Z2.0 F3000 ;Move Z Axis up 
G1 X10.1 Y20 Z0.28 F5000.0 ;Move to start position 
G1 X10.1 Y200.0 Z0.28 F1500.0 E15 ;Draw the first line
G1 X10.4 Y200.0 Z0.28 F5000.0 ;Move to side a little 
G1 X10.4 Y20 Z0.28 F1500.0 E30 ;Draw the second line 
G92 E0 ;Reset Extruder 
G1 Z2.0 F3000 ;Move Z Axis up
G92 E0
G92 E0
G1 F2400 E-6
;LAYER_COUNT:3
;LAYER:0
M107 P2
;MESH:Slab.stl
G0 F3000 X129.9 Y129.9 Z0.2
;TYPE:WALL-INNER
G1 F2400 E0
G1 F1200 X129.9 Y122.1 E0.28537
G1 X122.1 Y122.1 E0.57074
G1 X122.1 Y129.9 E0.85612
G1 X129.9 Y129.9 E1.14149
G0 F3000 X130.34 Y130.34
G1 F1200 X130.34 Y121.66 E1.45906
G1 X121.66 Y121.66 E1.77662
G1 X121.66 Y130.34 E2.09419
G1 X130.34 Y130.34 E2.41176
G0 F3000 X130.78 Y130.78
;TYPE:WALL-OUTER
G1 F1200 X130.78 Y121.22 E2.76152
G1 X121.22 Y121.22 E3.11129
G1 X121.22 Y130.78 E3.46105
G1 X130.78 Y130.78 E3.81081
G0 F3000 X130.78 Y129.98
G0 X129.504 Y129.504
;TYPE:SKIN
G1 F1200 X122.496 Y129.504 E4.06721
G1 X122.496 Y122.496 E4.3236
G1 X129.504 Y122.496 E4.58
G1 X129.504 Y129.504 E4.8364
G1 F2400 E-1.1636
G0 F3000 X128.938 Y122.715
G1 F2400 E4.8364
G1 F1200 X129.283 Y123.061 E4.85427
G0 F3000 X129.283 Y123.683
G1 F1200 X128.315 Y122.715 E4.90436
G0 F3000 X127.693 Y122.715
G1 F1200 X129.283 Y124.305 E4.98663
G0 F3000 X129.283 Y124.928
G1 F1200 X127.071 Y122.715 E5.1011
G0 F3000 X126.449 Y122.715
G1 F1200 X129.283 Y125.55 E5.24776
G0 F3000 X129.283 Y126.172
G1 F1200 X125.826 Y122.715 E5.42663
G0 F3000 X125.204 Y122.715
G1 F1200 X129.283 Y126.794 E5.63768
G0 F3000 X129.283 Y127.417
G1 F1200 X124.582 Y122.715 E5.88094
G0 F3000 X123.96 Y122.715
G1 F1200 X129.283 Y128.039 E6.15638
G0 F3000 X129.283 Y128.661
G1 F1200 X123.337 Y122.715 E6.46403
G0 F3000 X122.715 Y122.715
G1 F1200 X129.283 Y129.283 E6.80386
G0 F3000 X128.66 Y129.283
G1 F1200 X122.715 Y123.337 E7.11148
G0 F3000 X122.715 Y123.96
G1 F1200 X128.038 Y129.283 E7.3869
G0 F3000 X127.416 Y129.283
G1 F1200 X122.715 Y124.582 E7.63013
G0 F3000 X122.715 Y125.204
G1 F1200 X126.794 Y129.283 E7.84118
G0 F3000 X126.171 Y129.283
G1 F1200 X122.715 Y125.826 E8.02002
G0 F3000 X122.715 Y126.449
G1 F1200 X125.549 Y129.283 E8.16666
G0 F3000 X124.927 Y129.283
G1 F1200 X122.715 Y127.071 E8.28111
G0 F3000 X122.715 Y127.693
G1 F1200 X124.305 Y129.283 E8.36337
G0 F3000 X123.682 Y129.283
G1 F1200 X122.715 Y128.315 E8.41343
G0 F3000 X122.715 Y128.938
G1 F1200 X123.06 Y129.283 E8.43128
G1 F2400 E2.43128
;MESH:NONMESH
G0 F600 X123.06 Y129.283 Z0.4
G0 F3000 X129.9 Y129.9
;TIME_ELAPSED:18.093228
;LAYER:1
M106 S85 P2
;TYPE:WALL-INNER
;MESH:Slab.stl
G1 F2400 E8.43128
G1 F1404.4 X129.9 Y122.1 E8.71666
G1 X122.1 Y122.1 E9.00203
G1 X122.1 Y129.9 E9.2874
G1 X129.9 Y129.9 E9.57277
G0 F9000 X130.34 Y130.34
G1 F1404.4 X130.34 Y121.66 E9.89034
G1 X121.66 Y121.66 E10.20791
G1 X121.66 Y130.34 E10.52547
G1 X130.34 Y130.34 E10.84304
G0 F9000 X130.78 Y130.78
;TYPE:WALL-OUTER
G1 F1404.4 X130.78 Y121.22 E11.19281
G1 X121.22 Y121.22 E11.54257
G1 X121.22 Y130.78 E11.89233
G1 X130.78 Y130.78 E12.2421
G0 F9000 X130.78 Y129.98
G0 X129.504 Y129.504
;TYPE:SKIN
G1 F1404.4 X122.496 Y129.504 E12.49849
G1 X122.496 Y122.496 E12.75489
G1 X129.504 Y122.496 E13.01128
G1 X129.504 Y129.504 E13.26768
G0 F9000 X129.283 Y128.952
G1 F1404.4 X128.951 Y129.283 E13.28483
G0 F9000 X128.329 Y129.283
G1 F1404.4 X129.283 Y128.329 E13.33419
G0 F9000 X129.283 Y127.707
G1 F1404.4 X127.707 Y129.283 E13.41574
G0 F9000 X127.084 Y129.283
G1 F1404.4 X129.283 Y127.085 E13.52949
G0 F9000 X129.283 Y126.463
G1 F1404.4 X126.462 Y129.283 E13.67542
G0 F9000 X125.84 Y129.283
G1 F1404.4 X129.283 Y125.84 E13.85356
G0 F9000 X129.283 Y125.218
G1 F1404.4 X125.218 Y129.283 E14.06389
G0 F9000 X124.595 Y129.283
G1 F1404.4 X129.283 Y124.596 E14.30642
G0 F9000 X129.283 Y123.974
G1 F1404.4 X123.973 Y129.283 E14.58114
G0 F9000 X123.351 Y129.283
G1 F1404.4 X129.283 Y123.351 E14.88807
G0 F9000 X129.283 Y122.729
G1 F1404.4 X122.728 Y129.283 E15.2272
G0 F9000 X122.715 Y128.675
G1 F1404.4 X128.675 Y122.715 E15.53557
G0 F9000 X128.052 Y122.715
G1 F1404.4 X122.715 Y128.052 E15.81171
G0 F9000 X122.715 Y127.43
G1 F1404.4 X127.43 Y122.715 E16.05567
G0 F9000 X126.808 Y122.715
G1 F1404.4 X122.715 Y126.808 E16.26745
G0 F9000 X122.715 Y126.186
G1 F1404.4 X126.186 Y122.715 E16.44704
G0 F9000 X125.563 Y122.715
G1 F1404.4 X122.715 Y125.563 E16.59439
G0 F9000 X122.715 Y124.941
G1 F1404.4 X124.941 Y122.715 E16.70957
G0 F9000 X124.319 Y122.715
G1 F1404.4 X122.715 Y124.319 E16.79256
G0 F9000 X122.715 Y123.697
G1 F1404.4 X123.697 Y122.715 E16.84337
G0 F9000 X123.074 Y122.715
G1 F1404.4 X122.715 Y123.074 E16.86195
G1 F2400 E10.86195
;MESH:NONMESH
G0 F600 X122.715 Y123.074 Z0.6
G0 F9000 X129.9 Y129.9
;TIME_ELAPSED:29.002004
;LAYER:2
M106 S170 P2
;TYPE:WALL-INNER
;MESH:Slab.stl
G1 F2400 E16.86195
G1 F1422.6 X129.9 Y122.1 E17.14732
G1 X122.1 Y122.1 E17.43269
G1 X122.1 Y129.9 E17.71806
G1 X129.9 Y129.9 E18.00343
G0 F15000 X130.34 Y130.34
G1 F1422.6 X130.34 Y121.66 E18.321
G1 X121.66 Y121.66 E18.63857
G1 X121.66 Y130.34 E18.95614
G1 X130.34 Y130.34 E19.2737
G0 F15000 X130.78 Y130.78
;TYPE:WALL-OUTER
G1 F1422.6 X130.78 Y121.22 E19.62347
G1 X121.22 Y121.22 E19.97323
G1 X121.22 Y130.78 E20.323
G1 X130.78 Y130.78 E20.67276
G0 F15000 X130.78 Y129.98
G0 X129.504 Y129.504
;TYPE:SKIN
G1 F1422.6 X122.496 Y129.504 E20.92915
G1 X122.496 Y122.496 E21.18555
G1 X129.504 Y122.496 E21.44195
G1 X129.504 Y129.504 E21.69834
G1 F2400 E15.69834
G0 F15000 X128.938 Y122.715
G1 F2400 E21.69834
G1 F1422.6 X129.283 Y123.061 E21.71622
G0 F15000 X129.283 Y123.683
G1 F1422.6 X128.315 Y122.715 E21.7663
G0 F15000 X127.693 Y122.715
G1 F1422.6 X129.283 Y124.305 E21.84857
G0 F15000 X129.283 Y124.928
G1 F1422.6 X127.071 Y122.715 E21.96305
G0 F15000 X126.449 Y122.715
G1 F1422.6 X129.283 Y125.55 E22.10971
G0 F15000 X129.283 Y126.172
G1 F1422.6 X125.826 Y122.715 E22.28857
G0 F15000 X125.204 Y122.715
G1 F1422.6 X129.283 Y126.794 E22.49962
G0 F15000 X129.283 Y127.417
G1 F1422.6 X124.582 Y122.715 E22.74288
G0 F15000 X123.96 Y122.715
G1 F1422.6 X129.283 Y128.039 E23.01832
G0 F15000 X129.283 Y128.661
G1 F1422.6 X123.337 Y122.715 E23.32597
G0 F15000 X122.715 Y122.715
G1 F1422.6 X129.283 Y129.283 E23.6658
G0 F15000 X128.66 Y129.283
G1 F1422.6 X122.715 Y123.337 E23.97343
G0 F15000 X122.715 Y123.96
G1 F1422.6 X128.038 Y129.283 E24.24884
G0 F15000 X127.416 Y129.283
G1 F1422.6 X122.715 Y124.582 E24.49208
G0 F15000 X122.715 Y125.204
G1 F1422.6 X126.794 Y129.283 E24.70313
G0 F15000 X126.171 Y129.283
G1 F1422.6 X122.715 Y125.826 E24.88197
G0 F15000 X122.715 Y126.449
G1 F1422.6 X125.549 Y129.283 E25.0286
G0 F15000 X124.927 Y129.283
G1 F1422.6 X122.715 Y127.071 E25.14305
G0 F15000 X122.715 Y127.693
G1 F1422.6 X124.305 Y129.283 E25.22532
G0 F15000 X123.682 Y129.283
G1 F1422.6 X122.715 Y128.315 E25.27538
G0 F15000 X122.715 Y128.938
G1 F1422.6 X123.06 Y129.283 E25.29323
;TIME_ELAPSED:39.854110
G1 F2400 E19.29323
M140 S0
M107 P2
G91 ;Relative positionning 
G1 E-2 F2700 ;Retract a bit 
G1 E-2 Z0.2 F2400 ;Retract and raise Z 
G1 X5 Y5 F3000 ;Wipe out 
G1 Z10 ;Raise Z more 
G90 ;Absolute positionning
G28 X Y ;Present print
M106 S0 ;Turn-off fan 
M104 S0 ;Turn-off hotend 
M140 S0 ;Turn-off bed
M84 X Y E ;Disable all steppers but Z
M82 ;absolute extrusion mode
M104 S0
;End of Gcode
;SETTING_3 {"global_quality": "[general]\\nversion = 4\\nname = Allround Profile
;SETTING_3  Ender 7\\ndefinition = custom\\n\\n[metadata]\\ntype = quality_chang
;SETTING_3 es\\nquality_type = normal\\nsetting_version = 22\\n\\n[values]\\nadh
;SETTING_3 esion_type = none\\nlayer_height = 0.2\\nlayer_height_0 = 0.2\\nmater
;SETTING_3 ial_bed_temperature = 60\\nretraction_combing = off\\nsupport_enable 
;SETTING_3 = False\\ntravel_retract_before_outer_wall = True\\n\\n", "extruder_q
;SETTING_3 uality": ["[general]\\nversion = 4\\nname = Allround Profile Ender 7\
;SETTING_3 \ndefinition = custom\\n\\n[metadata]\\ntype = quality_changes\\nqual
;SETTING_3 ity_type = normal\\nintent_category = default\\nposition = 0\\nsettin
;SETTING_3 g_version = 22\\n\\n[values]\\ncool_fan_full_at_height = =0 if resolv
;SETTING_3 eOrValue('adhesion_type') == 'raft' else resolveOrValue('layer_height
;SETTING_3 _0')\\ncool_fan_full_layer = 4\\ncool_min_layer_time = 10\\ninfill_an
;SETTING_3 gles = [90, 180]\\ninfill_material_flow = 125.0\\ninfill_overlap = 0\
;SETTING_3 \ninfill_pattern = trihexagon\\ninfill_sparse_density = 20.0\\ninfill
;SETTING_3 _wipe_dist = 0\\nline_width = 0.44\\nmaterial_final_print_temperature
;SETTING_3  = 220.0\\nmaterial_initial_print_temperature = 220.0\\nmaterial_prin
;SETTING_3 t_temperature = 210\\noptimize_wall_printing_order = True\\nretract_a
;SETTING_3 t_layer_change = True\\nretraction_amount = 6\\nretraction_count_max 
;SETTING_3 = 100\\nretraction_extrusion_window = 2\\nretraction_min_travel = 1.5
;SETTING_3 \\nretraction_speed = 40\\nskin_overlap = 10\\nskirt_gap = 5\\nskirt_
;SETTING_3 line_count = 3\\nsmall_feature_speed_factor = 30\\nsmall_feature_spee
;SETTING_3 d_factor_0 = 20\\nsmall_hole_max_size = 5\\nspeed_layer_0 = 20\\nspee
;SETTING_3 d_print = 150\\nspeed_travel = 250\\nspeed_travel_layer_0 = 50.0\\nsp
;SETTING_3 eed_wall = 100\\nspeed_wall_0 = 80\\nspeed_wall_x = 100\\ntop_bottom_
;SETTING_3 thickness = 0.8\\nwall_0_wipe_dist = 0.8\\nwall_thickness = 1.32\\nzi
;SETTING_3 g_zaggify_infill = True\\n\\n"]}
